img/logo-ful.svg

<svg width="258" height="77" viewBox="0 0 258 77"  xmlns="http://www.w3.org/2000/svg" xmlns:xlink="http://www.w3.org/1999/xlink">
<style>
</style>
<g id="Canvas" fill="none">

<g id="Logo-title">
<path d="M 7.095 14C 9.105 14 10.05 12.68 10.05 11.285C 10.05 9.995 9.225 9.005 8.145 8.84C 9.12 8.63 9.855 7.79 9.855 6.545C 9.855 5.375 8.955 3.995 6.885 3.995L 0.81 3.995L 0.81 14L 7.095 14ZM 6.18 7.685L 3.84 7.685L 3.84 6.515L 6.18 6.515C 6.495 6.515 6.78 6.74 6.78 7.085C 6.78 7.445 6.495 7.685 6.18 7.685ZM 6.27 11.48L 3.84 11.48L 3.84 10.205L 6.27 10.205C 6.705 10.205 6.975 10.49 6.975 10.85C 6.975 11.225 6.705 11.48 6.27 11.48ZM 18.094 14L 18.094 9.62C 18.094 7.205 16.339 6.575 14.539 6.575C 13.444 6.575 12.094 6.89 11.119 7.67L 12.034 9.335C 12.604 8.9 13.369 8.63 14.044 8.63C 14.929 8.63 15.394 9.02 15.394 9.53L 15.394 10.28C 15.004 9.785 14.149 9.485 13.204 9.485C 12.124 9.485 10.714 9.995 10.714 11.795C 10.714 13.445 12.124 14.18 13.204 14.18C 14.104 14.18 14.989 13.82 15.394 13.31L 15.394 14L 18.094 14ZM 14.329 12.425C 13.879 12.425 13.384 12.29 13.384 11.84C 13.384 11.39 13.879 11.24 14.329 11.24C 14.749 11.24 15.214 11.375 15.394 11.63L 15.394 12.035C 15.214 12.29 14.749 12.425 14.329 12.425ZM 28.8279 6.755L 28.8279 11.66L 26.9079 11.66L 26.9079 6.755L 24.2079 6.755L 24.2079 11.66L 22.2879 11.66L 22.2879 6.755L 19.5879 6.755L 19.5879 14L 31.5279 14L 31.5279 6.755L 28.8279 6.755ZM 39.9202 14L 39.9202 9.62C 39.9202 7.205 38.1652 6.575 36.3652 6.575C 35.2702 6.575 33.9202 6.89 32.9452 7.67L 33.8602 9.335C 34.4302 8.9 35.1952 8.63 35.8702 8.63C 36.7552 8.63 37.2202 9.02 37.2202 9.53L 37.2202 10.28C 36.8302 9.785 35.9752 9.485 35.0302 9.485C 33.9502 9.485 32.5402 9.995 32.5402 11.795C 32.5402 13.445 33.9502 14.18 35.0302 14.18C 35.9302 14.18 36.8152 13.82 37.2202 13.31L 37.2202 14L 39.9202 14ZM 36.1552 12.425C 35.7052 12.425 35.2102 12.29 35.2102 11.84C 35.2102 11.39 35.7052 11.24 36.1552 11.24C 36.5752 11.24 37.0402 11.375 37.2202 11.63L 37.2202 12.035C 37.0402 12.29 36.5752 12.425 36.1552 12.425ZM 49.3473 14L 49.3473 9.095L 51.2523 9.095L 51.2523 6.755L 44.7123 6.755L 44.7123 9.095L 46.6473 9.095L 46.6473 14L 49.3473 14ZM 54.8046 14L 57.1296 10.565L 57.1296 14L 59.8296 14L 59.8296 6.755L 57.0996 6.755L 54.9246 9.98L 54.9246 6.755L 52.2246 6.755L 52.2246 14L 54.8046 14ZM 68.9409 14L 68.9409 6.755L 61.3359 6.755L 61.3359 14L 64.0359 14L 64.0359 9.095L 66.2409 9.095L 66.2409 14L 68.9409 14ZM 74.0173 14.18C 76.5973 14.18 78.0973 12.395 78.0973 10.37C 78.0973 8.345 76.5973 6.575 74.0173 6.575C 71.4523 6.575 69.9523 8.345 69.9523 10.37C 69.9523 12.395 71.4523 14.18 74.0173 14.18ZM 74.0173 11.795C 73.1923 11.795 72.7273 11.18 72.7273 10.37C 72.7273 9.575 73.1923 8.96 74.0173 8.96C 74.8573 8.96 75.3223 9.575 75.3223 10.37C 75.3223 11.18 74.8573 11.795 74.0173 11.795ZM 84.9845 6.755L 79.1045 6.755L 79.1045 14L 81.8045 14L 81.8045 9.095L 84.9845 9.095L 84.9845 6.755ZM 90.7 14.18C 92.5 14.18 93.88 12.86 93.88 10.37C 93.88 7.895 92.5 6.575 90.7 6.575C 89.95 6.575 89.245 6.83 88.66 7.52L 88.66 6.755L 85.96 6.755L 85.96 16.76L 88.66 16.76L 88.66 13.235C 89.26 13.925 89.95 14.18 90.7 14.18ZM 89.77 11.795C 89.425 11.795 88.9 11.6 88.66 11.3L 88.66 9.455C 88.915 9.14 89.425 8.96 89.77 8.96C 90.49 8.96 91.12 9.47 91.12 10.37C 91.12 11.285 90.49 11.795 89.77 11.795ZM 101.766 14L 101.766 9.62C 101.766 7.205 100.011 6.575 98.2109 6.575C 97.1159 6.575 95.7659 6.89 94.7909 7.67L 95.7059 9.335C 96.2759 8.9 97.0409 8.63 97.7159 8.63C 98.6009 8.63 99.0659 9.02 99.0659 9.53L 99.0659 10.28C 98.6759 9.785 97.8209 9.485 96.8759 9.485C 95.7959 9.485 94.3859 9.995 94.3859 11.795C 94.3859 13.445 95.7959 14.18 96.8759 14.18C 97.7759 14.18 98.6609 13.82 99.0659 13.31L 99.0659 14L 101.766 14ZM 98.0009 12.425C 97.5509 12.425 97.0559 12.29 97.0559 11.84C 97.0559 11.39 97.5509 11.24 98.0009 11.24C 98.4209 11.24 98.8859 11.375 99.0659 11.63L 99.0659 12.035C 98.8859 12.29 98.4209 12.425 98.0009 12.425ZM 105.705 6.575C 104.04 6.575 102.765 7.895 102.765 10.385C 102.765 12.86 104.04 14.18 105.705 14.18C 106.41 14.18 107.055 13.925 107.595 13.235L 107.595 16.76L 110.295 16.76L 110.295 13.235C 110.85 13.925 111.48 14.18 112.185 14.18C 113.85 14.18 115.125 12.86 115.125 10.37C 115.125 7.895 113.85 6.575 112.185 6.575C 111.48 6.575 110.835 6.83 110.295 7.52L 110.295 3.995L 107.595 3.995L 107.595 7.52C 107.04 6.83 106.41 6.575 105.705 6.575ZM 106.635 8.96C 106.935 8.96 107.385 9.155 107.595 9.455L 107.595 11.3C 107.37 11.615 106.935 11.795 106.635 11.795C 106.02 11.795 105.48 11.285 105.48 10.385C 105.48 9.47 106.02 8.96 106.635 8.96ZM 111.255 11.795C 110.955 11.795 110.505 11.6 110.295 11.3L 110.295 9.455C 110.52 9.14 110.955 8.96 111.255 8.96C 111.87 8.96 112.41 9.47 112.41 10.37C 112.41 11.285 111.87 11.795 111.255 11.795ZM 118.716 14L 121.041 10.565L 121.041 14L 123.741 14L 123.741 6.755L 121.011 6.755L 118.836 9.98L 118.836 6.755L 116.136 6.755L 116.136 14L 118.716 14ZM 128.082 14L 129.087 11.84L 130.152 11.84L 130.152 14L 132.852 14L 132.852 6.755L 127.872 6.755C 126.132 6.755 125.097 7.925 125.097 9.29C 125.097 10.685 125.967 11.33 126.507 11.57L 125.082 14L 128.082 14ZM 128.382 9.725C 128.052 9.725 127.827 9.545 127.827 9.29C 127.827 9.05 128.052 8.87 128.382 8.87L 130.152 8.87L 130.152 9.725L 128.382 9.725Z" transform="translate(79 49)" fill="#3A4047"/>
</g>
<g id="PRINTE">
<path d="M 12.288 44L 12.288 33.92L 19.68 33.92C 27.168 33.92 31.2 28.928 31.2 22.976C 31.2 16.976 27.168 11.984 19.68 11.984L 2.592 11.984L 2.592 44L 12.288 44ZM 18.432 25.472L 12.288 25.472L 12.288 20.432L 18.432 20.432C 20.064 20.432 21.36 21.248 21.36 22.976C 21.36 24.656 20.064 25.472 18.432 25.472ZM 63.0293 44L 57.2212 32.672C 59.7653 31.424 62.9812 28.496 62.9812 22.976C 62.9812 16.976 58.9492 11.984 51.4612 11.984L 34.3733 11.984L 34.3733 44L 44.0693 44L 44.0693 33.92L 47.5732 33.92L 51.9893 44L 63.0293 44ZM 49.9733 25.472L 44.0693 25.472L 44.0693 20.432L 49.9733 20.432C 51.6052 20.432 53.1412 21.2 53.1412 22.928C 53.1412 24.704 51.6052 25.472 49.9733 25.472ZM 76.6005 44L 76.6005 11.984L 66.9045 11.984L 66.9045 44L 76.6005 44ZM 112.58 44L 112.58 11.984L 102.884 11.984L 102.884 27.152L 91.7479 11.984L 81.7639 11.984L 81.7639 44L 91.4599 44L 91.4599 27.776L 103.268 44L 112.58 44ZM 134.324 44L 134.324 20.432L 142.868 20.432L 142.868 11.984L 116.036 11.984L 116.036 20.432L 124.628 20.432L 124.628 44L 134.324 44ZM 170.599 44L 170.599 35.552L 156.007 35.552L 156.007 32.048L 170.263 32.048L 170.263 23.6L 156.007 23.6L 156.007 20.432L 170.599 20.432L 170.599 11.984L 146.311 11.984L 146.311 44L 170.599 44Z" transform="translate(77 0)" fill="#1AB0CE"/>
</g>
<g id="cmyk">
<g id="Vector">
<path d="M 5.75197e-07 22.5457C 5.75197e-07 10.0947 10.0005 -3.22598e-08 22.334 -3.22598e-08C 34.6696 -3.22598e-08 44.6681 10.0947 44.6681 22.5457C 44.6681 34.9968 34.6696 45.0904 22.334 45.0904C 10.0005 45.0903 5.75197e-07 34.9967 5.75197e-07 22.5457Z" transform="translate(22.3319 17.9096)" fill="#4FC2E9"/>
</g>
<g id="Vector_2">
<path d="M 0 22.5457C 0 10.0947 9.9985 -3.22598e-08 22.3319 -3.22598e-08C 34.6675 -3.22598e-08 44.666 10.0947 44.666 22.5457C 44.666 34.9968 34.6675 45.0904 22.3319 45.0904C 9.99837 45.0903 0 34.9967 0 22.5457Z" transform="translate(0 17.9096)" fill="#EC87C0"/>
</g>
<g id="Vector_3">
<path d="M 11.168 2.09689e-07C 4.49212 3.89921 5.75197e-07 11.1847 5.75197e-07 19.5289C 5.75197e-07 27.8723 4.49212 35.1587 11.168 39.0557C 17.8419 35.1587 22.334 27.8721 22.334 19.5289C 22.334 11.1847 17.8418 3.89921 11.168 2.09689e-07Z" transform="translate(22.3319 20.9263)" fill="#5D9CEC"/>
</g>
<g id="Vector_4">
<path d="M 22.3339 45.0904C 9.99837 45.0904 -2.46369e-07 34.9967 -2.46369e-07 22.5468C -0.000131136 10.0947 9.99837 -1.20974e-07 22.3339 -1.20974e-07C 34.6675 -1.20974e-07 44.666 10.0947 44.666 22.5468C 44.6658 34.9968 34.6675 45.0904 22.3339 45.0904Z" transform="translate(11.166 1)" fill="#FFCE54"/>
</g>
<g id="Vector_5">
<path d="M 5.75197e-07 22.5457C 5.75197e-07 23.4624 0.0571984 24.3663 0.161517 25.258C 3.41045 27.1199 7.16658 28.1808 11.168 28.1808C 23.5016 28.1808 33.5001 18.0871 33.5001 5.63719C 33.5001 4.71871 33.4448 3.81345 33.3405 2.92497C 30.0916 1.06409 26.3353 -3.09626e-08 22.334 -3.09626e-08C 10.0005 -0.000132167 5.75197e-07 10.0947 5.75197e-07 22.5457Z" transform="translate(22.3319 17.9096)" fill="#A0D468"/>
</g>
<g id="Vector_6">
<path d="M 11.166 -9.67794e-07C 7.16462 -9.67794e-07 3.41058 1.06409 0.161517 2.92496C 0.0552353 3.81358 -1.75755e-07 4.71871 -1.75755e-07 5.63719C -1.75755e-07 18.0872 9.9985 28.1808 22.3339 28.1808C 26.3353 28.1808 30.0914 27.1199 33.3384 25.258C 33.4447 24.3663 33.4999 23.4622 33.4999 22.5457C 33.5001 10.0948 23.5016 -9.67794e-07 11.166 -9.67794e-07Z" transform="translate(11.1659 17.9095)" fill="#ED5564"/>
</g>
<g id="Vector_7">
<path d="M 11.8019 25.1556C 11.9696 25.1515 12.1372 25.1431 12.305 25.1349C 12.3235 25.1349 12.3418 25.1349 12.3624 25.1308C 12.5137 25.1226 12.6629 25.1143 12.8141 25.1019C 12.8549 25.1019 12.898 25.0978 12.9388 25.0937C 13.1003 25.0813 13.262 25.0689 13.4235 25.0525C 13.4562 25.0484 13.491 25.0443 13.5237 25.0401C 13.6607 25.0236 13.7956 25.0111 13.9304 24.9946C 13.9734 24.9864 14.0163 24.9822 14.0592 24.9781C 14.2147 24.9575 14.3701 24.9326 14.5235 24.912C 14.5685 24.9038 14.6155 24.8955 14.6605 24.8914C 14.7832 24.8709 14.9037 24.8502 15.0244 24.8296C 15.0712 24.8214 15.1184 24.8131 15.1654 24.8047C 15.3126 24.7758 15.4578 24.7469 15.605 24.7181C 15.6602 24.7099 15.7155 24.6974 15.7707 24.685C 15.8811 24.6602 15.9894 24.6355 16.0978 24.6108C 16.149 24.6026 16.1999 24.5901 16.2511 24.5777C 16.3901 24.5447 16.5271 24.5117 16.6642 24.4745C 16.7296 24.458 16.793 24.4415 16.8584 24.425C 16.9545 24.4001 17.0506 24.3713 17.1466 24.3465C 17.2346 24.3216 17.3244 24.2971 17.4123 24.2681C 17.5105 24.2433 17.6066 24.2145 17.7028 24.1814C 17.7744 24.1608 17.8479 24.136 17.9195 24.1154C 18.0013 24.0864 18.0852 24.0617 18.1669 24.0328C 18.2793 23.9957 18.3918 23.9585 18.5042 23.9172C 18.5758 23.8923 18.6453 23.8676 18.7169 23.8429C 18.7966 23.8141 18.8765 23.7852 18.9541 23.7564C 19.0216 23.7315 19.0871 23.7068 19.1525 23.6779C 19.2833 23.6283 19.4142 23.5788 19.5449 23.5251C 19.5981 23.5003 19.6533 23.4797 19.7064 23.455C 19.7923 23.4219 19.8782 23.3848 19.9621 23.3477C 19.9969 23.3311 20.0316 23.3187 20.0664 23.3022C 20.2259 23.232 20.3854 23.1619 20.5428 23.0876C 20.5878 23.067 20.6306 23.0464 20.6757 23.0256C 20.9559 22.8894 21.234 22.749 21.5079 22.6045C 21.5446 22.588 21.5814 22.5674 21.6183 22.5467C 21.8022 22.4476 21.9843 22.3485 22.1664 22.2453C 22.1685 22.2412 22.1704 22.2412 22.1725 22.2412C 22.2788 21.3495 22.334 20.4454 22.334 19.5289C 22.334 11.1847 17.8419 3.89921 11.168 6.45196e-08C 4.49212 3.89921 -3.51509e-07 11.1847 -3.51509e-07 19.5289C -3.51509e-07 20.4456 0.0571994 21.3495 0.161518 22.2412C 0.169633 22.2453 0.179972 22.2493 0.188087 22.2536C 0.361908 22.3527 0.537692 22.4518 0.715571 22.5468C 0.752351 22.5674 0.791226 22.588 0.828006 22.6088C 1.10196 22.7532 1.378 22.8894 1.65811 23.0216C 1.703 23.0464 1.74803 23.067 1.79305 23.0876C 1.94646 23.1577 2.10182 23.2279 2.25718 23.2981C 2.29606 23.3146 2.33493 23.3311 2.37381 23.3477C 2.45771 23.3848 2.54148 23.4219 2.62734 23.455C 2.68258 23.4798 2.73781 23.5004 2.79292 23.5251C 2.91975 23.5788 3.05064 23.6283 3.17943 23.6779C 3.24697 23.7027 3.31242 23.7315 3.37982 23.7564C 3.45954 23.7853 3.53938 23.8142 3.61909 23.8429C 3.68859 23.8678 3.76019 23.8925 3.83178 23.9172C 3.94212 23.9584 4.05469 23.9957 4.16712 24.0328C 4.24893 24.0617 4.3327 24.0864 4.4166 24.1154C 4.48806 24.1402 4.55966 24.1608 4.63335 24.1814C 4.72942 24.2145 4.8255 24.2434 4.92366 24.2724C 5.01162 24.2972 5.09945 24.3218 5.1874 24.3466C 5.28348 24.3715 5.37955 24.4003 5.47772 24.4251C 5.54107 24.4416 5.60651 24.4581 5.67196 24.4747C 5.8069 24.5118 5.94591 24.5448 6.08295 24.5779C 6.134 24.5903 6.18517 24.6027 6.23622 24.6109C 6.34669 24.6357 6.45494 24.6604 6.56344 24.6851C 6.61868 24.6976 6.67588 24.71 6.73111 24.7182C 6.87627 24.7471 7.02352 24.7761 7.16867 24.8049C 7.21566 24.8131 7.26265 24.8214 7.30977 24.8297C 7.43045 24.8503 7.5531 24.8709 7.67574 24.8915C 7.72077 24.8956 7.76579 24.904 7.81069 24.9122C 7.96618 24.9328 8.11946 24.9576 8.27482 24.9782C 8.31775 24.9823 8.36265 24.9864 8.40571 24.9947C 8.54066 25.0113 8.6756 25.0237 8.81055 25.0402C 8.84537 25.0443 8.87809 25.0484 8.91278 25.0526C 9.07429 25.0691 9.23372 25.0816 9.39733 25.0938C 9.43817 25.0979 9.47913 25.102 9.51997 25.102C 9.67128 25.1145 9.82259 25.1227 9.9739 25.131C 9.99235 25.1351 10.0128 25.1351 10.0311 25.1351C 10.1988 25.1433 10.3664 25.1516 10.5341 25.1557C 10.5749 25.1557 10.6138 25.1557 10.6547 25.1598C 10.8244 25.1639 10.9961 25.1639 11.1679 25.1639C 11.3397 25.1639 11.5094 25.1639 11.6791 25.1598C 11.7201 25.1556 11.7609 25.1556 11.8019 25.1556Z" transform="translate(22.3318 20.9265)" fill="#434A54"/>
</g>
</g>
</g>

</svg>

<svg width="258" height="77" xmlns="http://www.w3.org/2000/svg"><style/><g id="Canvas" fill="none"><path d="M7.1 14c2 0 2.95-1.32 2.95-2.71 0-1.3-.83-2.28-1.9-2.45.97-.21 1.7-1.05 1.7-2.3C9.86 5.38 8.96 4 6.9 4H.8v10H7.1zm-.92-6.32H3.84V6.51h2.34c.32 0 .6.23.6.58a.6.6 0 0 1-.6.6zm.09 3.8H3.84V10.2h2.43c.44 0 .7.29.7.65 0 .38-.26.63-.7.63zM18.09 14V9.62c0-2.41-1.75-3.04-3.55-3.04-1.1 0-2.45.31-3.42 1.09l.91 1.67c.57-.44 1.34-.71 2.01-.71.89 0 1.35.39 1.35.9v.75c-.39-.5-1.24-.8-2.19-.8-1.08 0-2.49.51-2.49 2.31 0 1.66 1.41 2.39 2.5 2.39.9 0 1.78-.36 2.18-.87V14h2.7zm-3.76-1.57c-.45 0-.95-.14-.95-.59 0-.45.5-.6.95-.6.42 0 .88.13 1.06.39v.4c-.18.26-.64.4-1.06.4zm14.5-5.67v4.9H26.9v-4.9h-2.7v4.9h-1.92v-4.9h-2.7V14h11.94V6.75h-2.7zM39.92 14V9.62c0-2.41-1.75-3.04-3.55-3.04-1.1 0-2.45.31-3.42 1.09l.91 1.67c.57-.44 1.34-.71 2.01-.71.89 0 1.35.39 1.35.9v.75c-.39-.5-1.24-.8-2.19-.8-1.08 0-2.49.51-2.49 2.31 0 1.66 1.41 2.39 2.49 2.39.9 0 1.79-.36 2.19-.87V14h2.7zm-3.76-1.57c-.45 0-.95-.14-.95-.59 0-.45.5-.6.95-.6.42 0 .88.13 1.06.39v.4c-.18.26-.64.4-1.06.4zM49.35 14V9.1h1.9V6.76h-6.54V9.1h1.94V14h2.7zm5.45 0l2.33-3.44V14h2.7V6.75H57.1l-2.18 3.23V6.75h-2.7V14h2.58zm14.14 0V6.75h-7.6V14h2.7V9.1h2.2V14h2.7zm5.08.18c2.58 0 4.08-1.79 4.08-3.81s-1.5-3.8-4.08-3.8c-2.57 0-4.07 1.78-4.07 3.8 0 2.03 1.5 3.81 4.07 3.81zm0-2.38c-.83 0-1.3-.62-1.3-1.43 0-.8.47-1.41 1.3-1.41.84 0 1.3.61 1.3 1.41 0 .81-.46 1.43-1.3 1.43zm10.96-5.05H79.1V14h2.7V9.1h3.18V6.76zm5.72 7.43c1.8 0 3.18-1.32 3.18-3.81 0-2.47-1.38-3.8-3.18-3.8-.75 0-1.45.26-2.04.95v-.76h-2.7v10h2.7v-3.53c.6.7 1.29.95 2.04.95zm-.93-2.38c-.34 0-.87-.2-1.11-.5V9.45c.26-.31.77-.49 1.11-.49.72 0 1.35.51 1.35 1.41 0 .92-.63 1.43-1.35 1.43zm12 2.2V9.62c0-2.41-1.76-3.04-3.56-3.04-1.1 0-2.44.31-3.42 1.09l.92 1.67c.57-.44 1.33-.71 2-.71.9 0 1.36.39 1.36.9v.75c-.4-.5-1.25-.8-2.2-.8-1.07 0-2.48.51-2.48 2.31 0 1.66 1.4 2.39 2.49 2.39.9 0 1.78-.36 2.19-.87V14h2.7zM98 12.43c-.45 0-.94-.14-.94-.59 0-.45.5-.6.94-.6.42 0 .89.13 1.07.39v.4c-.18.26-.65.4-1.07.4zm7.7-5.85c-1.66 0-2.94 1.31-2.94 3.8 0 2.48 1.28 3.8 2.94 3.8.71 0 1.36-.25 1.9-.95v3.53h2.7v-3.53a2.3 2.3 0 0 0 1.89.95c1.66 0 2.94-1.32 2.94-3.81 0-2.47-1.28-3.8-2.94-3.8-.71 0-1.36.26-1.9.95V4h-2.7v3.52a2.3 2.3 0 0 0-1.89-.94zm.94 2.38c.3 0 .75.2.95.5v1.84c-.22.31-.66.5-.95.5-.62 0-1.16-.52-1.16-1.42 0-.91.54-1.42 1.16-1.42zm4.61 2.83c-.3 0-.75-.19-.95-.49V9.45c.22-.31.66-.49.95-.49.62 0 1.16.51 1.16 1.41 0 .92-.54 1.43-1.16 1.43zm7.47 2.21l2.32-3.44V14h2.7V6.75h-2.73l-2.17 3.23V6.75h-2.7V14h2.58zm9.36 0l1-2.16h1.07V14h2.7V6.75h-4.98c-1.74 0-2.77 1.17-2.77 2.54 0 1.4.87 2.04 1.4 2.28L125.09 14h3zm.3-4.28c-.33 0-.55-.18-.55-.43 0-.24.22-.42.55-.42h1.77v.86h-1.77z" transform="translate(79 49)" fill="#3A4047" id="Logo-title"/><path d="M12.29 44V33.92h7.39c7.49 0 11.52-5 11.52-10.94 0-6-4.03-11-11.52-11H2.59V44h9.7zm6.14-18.53H12.3v-5.04h6.14c1.63 0 2.93.82 2.93 2.55 0 1.68-1.3 2.5-2.93 2.5zM63.03 44l-5.8-11.33c2.54-1.25 5.75-4.17 5.75-9.7 0-6-4.03-10.99-11.52-10.99H34.37V44h9.7V33.92h3.5L52 44h11.04zM49.97 25.47h-5.9v-5.04h5.9c1.64 0 3.17.77 3.17 2.5 0 1.77-1.53 2.54-3.17 2.54zM76.6 44V11.98h-9.7V44h9.7zm35.98 0V11.98h-9.7v15.17L91.75 11.98h-9.99V44h9.7V27.78L103.26 44h9.32zm21.74 0V20.43h8.55v-8.45h-26.83v8.45h8.59V44h9.7zm36.28 0v-8.45H156v-3.5h14.26V23.6h-14.25v-3.17h14.59v-8.45H146.3V44h24.29z" transform="translate(77)" fill="#1AB0CE" id="PRINTE"/><g id="cmyk"><path d="M0 22.55C0 10.09 10 0 22.33 0a22.44 22.44 0 0 1 22.34 22.55c0 12.45-10 22.54-22.34 22.54A22.44 22.44 0 0 1 0 22.55z" transform="translate(22.33 17.91)" fill="#4FC2E9" id="Vector"/><path d="M0 22.55C0 10.09 10 0 22.33 0a22.44 22.44 0 0 1 22.34 22.55c0 12.45-10 22.54-22.34 22.54A22.44 22.44 0 0 1 0 22.55z" transform="translate(0 17.91)" fill="#EC87C0" id="Vector_2"/><path d="M11.17 0A22.58 22.58 0 0 0 0 19.53c0 8.34 4.5 15.63 11.17 19.53a22.57 22.57 0 0 0 11.16-19.53c0-8.35-4.49-15.63-11.16-19.53z" transform="translate(22.33 20.93)" fill="#5D9CEC" id="Vector_3"/><path d="M22.33 45.09A22.44 22.44 0 0 1 0 22.55C0 10.09 10 0 22.33 0a22.44 22.44 0 0 1 22.34 22.55c0 12.45-10 22.54-22.34 22.54z" transform="translate(11.17 1)" fill="#FFCE54" id="Vector_4"/><path d="M0 22.55c0 .91.06 1.82.16 2.7 3.25 1.87 7 2.93 11 2.93A22.44 22.44 0 0 0 33.35 2.92c-3.25-1.86-7-2.92-11-2.92A22.44 22.44 0 0 0 0 22.55z" transform="translate(22.33 17.91)" fill="#A0D468" id="Vector_5"/><path d="M11.17 0c-4 0-7.76 1.06-11 2.92a22.44 22.44 0 0 0 22.17 25.26c4 0 7.75-1.06 11-2.92A22.44 22.44 0 0 0 11.17 0z" transform="translate(11.17 17.91)" fill="#ED5564" id="Vector_6"/><path d="M11.8 25.16c.17 0 .34-.02.5-.03h.06a16.27 16.27 0 0 0 .58-.04c.16 0 .32-.02.48-.04l.1-.01.41-.05.13-.01.46-.07.14-.02.36-.06.15-.03.44-.08.16-.04.33-.07.15-.03.41-.1.2-.05.29-.08.26-.08.3-.09.2-.06.26-.09.33-.11.22-.08a29.53 29.53 0 0 0 .43-.16l.4-.15.16-.08.25-.1.1-.05.48-.21.14-.06a28.29 28.29 0 0 0 1.49-.78A22.58 22.58 0 0 0 11.17 0a22.58 22.58 0 0 0-11 22.23l.02.01.53.3.1.06.84.41.13.07a121.2 121.2 0 0 0 .58.26l.26.1.16.08.39.15.2.08.24.08.21.08.34.11.25.09.21.06.3.1.26.07.29.08.2.04.4.1a2 2 0 0 0 .16.04l.32.08c.06 0 .12.02.17.03l.44.08.14.03.37.06.13.02.46.07.14.01.4.05.1.01a17.67 17.67 0 0 0 .61.05l.45.03h.06l.5.03h1.27z" transform="translate(22.33 20.93)" fill="#434A54" id="Vector_7"/></g></g></svg>
